icons/svg/16x16/info squircle/filled.svg

<svg width="16" height="16" fill="none" xmlns="http://www.w3.org/2000/svg">
  <path fill-rule="evenodd" clip-rule="evenodd" d="M7 7h2V5H7v2zm0 4h2V8H7v3zm7.609-6.672a3.83 3.83 0 00-2.937-2.937A17.357 17.357 0 008 1c-1.26 0-2.488.135-3.672.391a3.828 3.828 0 00-2.937 2.937A17.357 17.357 0 001 8c0 1.26.135 2.488.391 3.672a3.83 3.83 0 002.937 2.937C5.512 14.865 6.74 15 8 15c1.26 0 2.488-.135 3.672-.391a3.83 3.83 0 002.937-2.937C14.865 10.488 15 9.26 15 8c0-1.26-.135-2.488-.391-3.672z" fill="#000"/>
</svg>

<svg xmlns="http://www.w3.org/2000/svg" width="16" height="16" viewBox="0 0 16 16">
  <path fill-rule="evenodd" d="M7,6 L9,6 L9,4 L7,4 L7,6 Z M7,12 L9,12 L9,7 L7,7 L7,12 Z M14.609,4.328 C14.291,2.856 13.144,1.709 11.672,1.391 C10.488,1.135 9.26,1 8,1 C6.74,1 5.512,1.135 4.328,1.391 C2.856,1.708 1.709,2.856 1.391,4.328 C1.135,5.512 1,6.74 1,8 C1,9.26 1.135,10.488 1.391,11.672 C1.709,13.144 2.856,14.291 4.328,14.609 C5.512,14.865 6.74,15 8,15 C9.26,15 10.488,14.865 11.672,14.609 C13.144,14.291 14.291,13.144 14.609,11.672 C14.865,10.488 15,9.26 15,8 C15,6.74 14.865,5.512 14.609,4.328 L14.609,4.328 Z"/>
</svg>
